newicons/emoji_rounded_symbol_for_xi.svg

<?xml version="1.0" encoding="UTF-8" standalone="no"?>
<svg
   version="1.2"
   viewBox="0 0 48 48"
   id="svg14"
   xmlns="http://www.w3.org/2000/svg"
   xmlns:svg="http://www.w3.org/2000/svg">
  <defs
     id="defs1" />
  <path
     d="m 24,10.946429 v 10.75"
     fill="none"
     stroke="#ffffff"
     stroke-linecap="round"
     stroke-linejoin="round"
     stroke-width="1"
     id="path1"
     style="stroke-width:1;stroke-dasharray:none" />
  <path
     d="M 24,26.303572 V 37.053571"
     fill="none"
     stroke="#ffffff"
     stroke-linecap="round"
     stroke-linejoin="round"
     stroke-width="1"
     id="path2"
     style="stroke-width:1;stroke-dasharray:none" />
  <path
     d="M 17.857143,14.785715 H 30.142857"
     fill="none"
     stroke="#ffffff"
     stroke-linecap="round"
     stroke-linejoin="round"
     stroke-width="1"
     id="path3"
     style="stroke-width:1;stroke-dasharray:none" />
  <path
     d="M 17.857143,17.857144 H 30.142857"
     fill="none"
     stroke="#ffffff"
     stroke-linecap="round"
     stroke-linejoin="round"
     stroke-width="1"
     id="path4"
     style="stroke-width:1;stroke-dasharray:none" />
  <path
     d="M 17.857143,30.142857 H 30.142857"
     fill="none"
     stroke="#ffffff"
     stroke-linecap="round"
     stroke-linejoin="round"
     stroke-width="1"
     id="path5"
     style="stroke-width:1;stroke-dasharray:none" />
  <path
     d="M 17.857143,33.214286 H 30.142857"
     fill="none"
     stroke="#ffffff"
     stroke-linecap="round"
     stroke-linejoin="round"
     stroke-width="1"
     id="path6"
     style="stroke-width:1;stroke-dasharray:none" />
  <path
     d="m 17.857143,7.491072 v 14.205357 h -7.525 A 13.821428,13.821428 0 0 1 14.325,14.017857 v 4.300001 m 3.532143,22.19107 V 26.303572 h -7.525 A 13.821428,13.821428 0 0 0 14.325,33.982143 v -4.3 M 30.142857,7.491072 v 14.205357 h 7.525 A 13.821428,13.821428 0 0 0 33.675,14.017857 v 4.300001 m -3.532143,22.19107 V 26.303572 h 7.525 A 13.821428,13.821428 0 0 1 33.675,33.982143 v -4.3"
     fill="none"
     stroke="#ffffff"
     stroke-linecap="round"
     stroke-linejoin="round"
     stroke-width="1"
     id="path7"
     style="stroke-width:1;stroke-dasharray:none" />
  <path
     d="m 17.857143,7.491072 a 17.660714,17.660714 0 0 0 0,33.017856 M 30.142857,7.491072 a 17.660714,17.660714 0 0 1 0,33.017856"
     fill="none"
     stroke="#ffffff"
     stroke-linecap="round"
     stroke-linejoin="round"
     stroke-width="1"
     id="path8"
     style="stroke-width:1;stroke-dasharray:none" />
  <path
     d="m 14.785714,21.696429 v 4.607143"
     fill="none"
     stroke="#ffffff"
     stroke-linecap="round"
     stroke-linejoin="round"
     stroke-width="1"
     id="path9"
     style="stroke-width:1;stroke-dasharray:none" />
  <path
     d="m 33.214286,21.696429 v 4.607143"
     fill="none"
     stroke="#ffffff"
     stroke-linecap="round"
     stroke-linejoin="round"
     stroke-width="1"
     id="path10"
     style="stroke-width:1;stroke-dasharray:none" />
  <path
     d="m 2.5,24 a 21.5,21.5 0 1 0 43,0 21.5,21.5 0 1 0 -43,0"
     fill="none"
     stroke="#ffffff"
     stroke-linecap="round"
     stroke-linejoin="round"
     stroke-width="1"
     id="path11"
     style="stroke-width:1;stroke-dasharray:none" />
  <path
     d="m 21.696429,21.696429 h 4.607142 v 4.607143 h -4.607142 v -4.607143"
     fill="none"
     stroke="#ffffff"
     stroke-linecap="round"
     stroke-linejoin="round"
     stroke-width="1"
     id="path12"
     style="stroke-width:1;stroke-dasharray:none" />
  <path
     d="m 21.696429,37.053571 h 4.607142 v 4.607143 h -4.607142 v -4.607143"
     fill="none"
     stroke="#ffffff"
     stroke-linecap="round"
     stroke-linejoin="round"
     stroke-width="1"
     id="path13"
     style="stroke-width:1;stroke-dasharray:none" />
  <path
     d="m 21.696429,6.3392863 h 4.607142 V 10.946429 H 21.696429 V 6.3392863"
     fill="none"
     stroke="#ffffff"
     stroke-linecap="round"
     stroke-linejoin="round"
     stroke-width="1"
     id="path14"
     style="stroke-width:1;stroke-dasharray:none" />
</svg>

<?xml version="1.0" encoding="UTF-8"?><svg id="a" xmlns="http://www.w3.org/2000/svg" viewBox="0 0 48 48"><defs><style>.p{fill:none;stroke:#fff;stroke-linecap:round;stroke-linejoin:round;}</style></defs><path id="b" class="p" d="M24,10.9464v10.75"/><path id="c" class="p" d="M24,26.3036v10.75"/><path id="d" class="p" d="M17.8571,14.7857h12.2857"/><path id="e" class="p" d="M17.8571,17.8571h12.2857"/><path id="f" class="p" d="M17.8571,30.1429h12.2857"/><path id="g" class="p" d="M17.8571,33.2143h12.2857"/><path id="h" class="p" d="M17.8571,7.4911v14.2054h-7.525c.4746-2.921,1.8742-5.6125,3.9929-7.6786v4.3M17.8571,40.5089v-14.2054h-7.525c.4746,2.921,1.8742,5.6125,3.9929,7.6786v-4.3M30.1429,7.4911v14.2054h7.525c-.4746-2.921-1.8742-5.6125-3.9929-7.6786v4.3M30.1429,40.5089v-14.2054h7.525c-.4746,2.921-1.8742,5.6125-3.9929,7.6786v-4.3"/><path id="i" class="p" d="M17.8571,7.4911c-9.1176,3.4647-13.7002,13.6647-10.2355,22.7824,1.7927,4.7176,5.5179,8.4428,10.2355,10.2355M30.1429,7.4911c9.1176,3.4647,13.7002,13.6647,10.2355,22.7824-1.7927,4.7176-5.5179,8.4428-10.2355,10.2355"/><path id="j" class="p" d="M14.7857,21.6964v4.6071"/><path id="k" class="p" d="M33.2143,21.6964v4.6071"/><path id="l" class="p" d="M2.5,24c0,11.8741,9.6259,21.5,21.5,21.5s21.5-9.6259,21.5-21.5S35.8741,2.5,24,2.5,2.5,12.1259,2.5,24"/><path id="m" class="p" d="M21.6964,21.6964h4.6071v4.6071h-4.6071v-4.6071"/><path id="n" class="p" d="M21.6964,37.0536h4.6071v4.6071h-4.6071v-4.6071"/><path id="o" class="p" d="M21.6964,6.3393h4.6071v4.6071h-4.6071v-4.6071"/></svg>
